;FLAVOR:Marlin
;TIME:4498
;Filament used: 4.65366m
;Layer height: 0.28
;MINX:79
;MINY:52.55
;MINZ:0.28
;MAXX:141
;MAXY:167.45
;MAXZ:5.6
;TARGET_MACHINE.NAME:Creality Ender-3 Pro
;Generated with Cura_SteamEngine 5.5.0
M82 ;absolute extrusion mode
; Ender 3 Custom Start G-code
G92 E0 ; Reset Extruder
G28 ; Home all axes
G1 Z5.0 F3000 ; Move Z Axis up a bit during heating to not damage bed
M104 S175 ; Start heating up the nozzle most of the way
M190 S70 ; Start heating the bed, wait until target temperature reached
M109 S240.0 ; Finish heating the nozzle
G1 Z2.0 F3000 ; Move Z Axis up little to prevent scratching of Heat Bed
G1 X0.1 Y20 Z0.3 F5000.0 ; Move to start position
G1 X0.1 Y200.0 Z0.3 F1500.0 E15 ; Draw the first line
G1 X0.4 Y200.0 Z0.3 F5000.0 ; Move to side a little
G1 X0.4 Y20 Z0.3 F1500.0 E30 ; Draw the second line
G92 E0 ; Reset Extruder
G1 Z2.0 F3000 ; Move Z Axis up little to prevent scratching of Heat Bed
G1 X5 Y20 Z0.3 F5000.0 ; Move over to prevent blob squish
G92 E0
G92 E0
G1 F1800 E-6
;LAYER_COUNT:20
;LAYER:0
M107
G0 F6000 X83.331 Y60.799 Z0.28
;TYPE:SKIRT
G1 F1800 E0
G1 F1200 X83.91 Y60.078 E0.04306
G1 X84.471 Y59.44 E0.08262
G1 X84.872 Y59.005 E0.11017
G1 X85.507 Y58.372 E0.15192
G1 X86.132 Y57.804 E0.19124
G1 X86.615 Y57.388 E0.22092
G1 X87.308 Y56.839 E0.26209
G1 X87.971 Y56.36 E0.30018
G1 X88.467 Y56.017 E0.32826
G1 X89.226 Y55.542 E0.36995
G1 X89.963 Y55.125 E0.40938
G1 X90.541 Y54.817 E0.43988
G1 X91.306 Y54.45 E0.47939
G1 X92.094 Y54.116 E0.51924
G1 X92.63 Y53.902 E0.54611
G1 X93.492 Y53.6 E0.58864
G1 X94.35 Y53.344 E0.63034
G1 X94.974 Y53.176 E0.66043
G1 X95.836 Y52.982 E0.70157
G1 X96.359 Y52.886 E0.72633
G1 X97.251 Y52.745 E0.76838
G1 X98.128 Y52.649 E0.80946
G1 X99 Y52.591 E0.85015
G1 X99.859 Y52.56 E0.89018
G1 X100.673 Y52.55 E0.92809
G1 X119.303 Y52.55 E1.79558
G1 X120.166 Y52.561 E1.83576
G1 X121.044 Y52.595 E1.87668
G1 X121.946 Y52.656 E1.91878
G1 X122.827 Y52.756 E1.96006
G1 X123.665 Y52.892 E1.99959
G1 X124.322 Y53.015 E2.03072
G1 X125.144 Y53.205 E2.07
G1 X125.943 Y53.427 E2.10862
G1 X126.501 Y53.596 E2.13577
G1 X127.374 Y53.902 E2.17884
G1 X128.173 Y54.226 E2.21899
G1 X128.751 Y54.477 E2.24833
G1 X129.553 Y54.865 E2.28982
G1 X130.279 Y55.259 E2.32828
G1 X130.805 Y55.56 E2.3565
G1 X131.53 Y56.016 E2.39638
G1 X132.251 Y56.515 E2.43721
G1 X132.75 Y56.881 E2.46602
G1 X133.462 Y57.451 E2.50849
G1 X134.11 Y58.021 E2.54868
G1 X134.545 Y58.422 E2.57623
G1 X135.178 Y59.057 E2.61798
G1 X135.753 Y59.691 E2.65783
G1 X136.169 Y60.174 E2.68751
G1 X136.705 Y60.85 E2.72769
G1 X137.189 Y61.519 E2.76614
G1 X137.527 Y62.009 E2.79385
G1 X138 Y62.762 E2.83526
G1 X138.405 Y63.478 E2.87356
G1 X138.714 Y64.055 E2.90404
G1 X139.123 Y64.906 E2.94801
G1 X139.442 Y65.656 E2.98596
G1 X139.657 Y66.198 E3.01311
G1 X139.95 Y67.039 E3.05458
G1 X140.116 Y67.585 E3.08115
G1 X140.37 Y68.509 E3.12577
G1 X140.571 Y69.396 E3.16812
G1 X140.709 Y70.181 E3.20524
G1 X140.8 Y70.773 E3.23312
G1 X140.9 Y71.659 E3.27464
G1 X140.943 Y72.265 E3.30293
G1 X140.989 Y73.39 E3.35536
G1 X141 Y74.233 E3.39462
G1 X140.999 Y145.904 E6.73192
G1 X140.981 Y146.893 E6.77798
G1 X140.955 Y147.492 E6.8059
G1 X140.896 Y148.38 E6.84734
G1 X140.796 Y149.264 E6.88876
G1 X140.658 Y150.115 E6.92891
G1 X140.535 Y150.772 E6.96003
G1 X140.345 Y151.594 E6.99932
G1 X140.122 Y152.396 E7.03808
G1 X139.945 Y152.977 E7.06636
G1 X139.643 Y153.837 E7.1088
G1 X139.331 Y154.605 E7.1474
G1 X139.088 Y155.169 E7.176
G1 X138.698 Y155.977 E7.21777
G1 X138.291 Y156.729 E7.25759
G1 X137.99 Y157.255 E7.28581
G1 X137.534 Y157.98 E7.32569
G1 X137.035 Y158.701 E7.36652
G1 X136.669 Y159.2 E7.39533
G1 X136.098 Y159.912 E7.43783
G1 X135.522 Y160.567 E7.47845
G1 X135.124 Y160.998 E7.50577
G1 X134.5 Y161.62 E7.54679
G1 X133.885 Y162.179 E7.58549
G1 X133.403 Y162.597 E7.6152
G1 X132.683 Y163.168 E7.65799
G1 X132.029 Y163.64 E7.69554
G1 X131.533 Y163.983 E7.72362
G1 X130.774 Y164.458 E7.76532
G1 X130.059 Y164.864 E7.8036
G1 X129.482 Y165.172 E7.83406
G1 X128.685 Y165.555 E7.87523
G1 X127.906 Y165.885 E7.91463
G1 X127.362 Y166.103 E7.94192
G1 X126.539 Y166.391 E7.98252
G1 X125.659 Y166.653 E8.02527
G1 X125.037 Y166.821 E8.05527
G1 X124.154 Y167.021 E8.09743
G1 X123.359 Y167.161 E8.13502
G1 X122.755 Y167.255 E8.16348
G1 X121.871 Y167.351 E8.20489
G1 X121 Y167.409 E8.24553
G1 X120.141 Y167.44 E8.28556
G1 X119.316 Y167.45 E8.32398
G1 X100.546 Y167.449 E9.19799
G1 X99.552 Y167.431 E9.24428
G1 X98.644 Y167.388 E9.28661
G1 X98.054 Y167.344 E9.31415
G1 X97.173 Y167.244 E9.35544
G1 X96.335 Y167.108 E9.39497
G1 X95.678 Y166.985 E9.4261
G1 X94.856 Y166.795 E9.46538
G1 X94.054 Y166.572 E9.50414
G1 X93.473 Y166.395 E9.53242
G1 X92.613 Y166.093 E9.57487
G1 X91.827 Y165.774 E9.61437
G1 X91.249 Y165.523 E9.64371
G1 X90.447 Y165.135 E9.68519
G1 X89.723 Y164.742 E9.72355
G1 X89.195 Y164.44 E9.75188
G1 X88.459 Y163.977 E9.79236
G1 X87.748 Y163.484 E9.83265
G1 X87.249 Y163.118 E9.86147
G1 X86.539 Y162.548 E9.90386
G1 X85.889 Y161.977 E9.94415
G1 X85.452 Y161.575 E9.9718
G1 X84.819 Y160.94 E10.01355
G1 X84.248 Y160.31 E10.05314
G1 X83.831 Y159.826 E10.08289
G1 X83.292 Y159.146 E10.12329
G1 X82.81 Y158.479 E10.16161
G1 X82.467 Y157.983 E10.18969
G1 X81.992 Y157.224 E10.23138
G1 X81.591 Y156.515 E10.26931
G1 X81.28 Y155.937 E10.29988
G1 X80.894 Y155.134 E10.34136
G1 X80.558 Y154.344 E10.38134
G1 X80.343 Y153.802 E10.40849
G1 X80.059 Y152.989 E10.44859
G1 X79.797 Y152.109 E10.49134
G1 X79.629 Y151.487 E10.52134
G1 X79.429 Y150.603 E10.56355
G1 X79.289 Y149.807 E10.60118
G1 X79.195 Y149.202 E10.62969
G1 X79.099 Y148.322 E10.67091
G1 X79.041 Y147.451 E10.71156
G1 X79.01 Y146.592 E10.75158
G1 X79 Y145.767 E10.79
G1 X79.001 Y74.099 E14.12716
G1 X79.019 Y73.084 E14.17443
G1 X79.062 Y72.195 E14.21588
G1 X79.106 Y71.604 E14.24347
G1 X79.206 Y70.719 E14.28494
G1 X79.342 Y69.885 E14.32429
G1 X79.465 Y69.228 E14.35541
G1 X79.655 Y68.406 E14.3947
G1 X79.878 Y67.604 E14.43346
G1 X80.055 Y67.023 E14.46174
G1 X80.357 Y66.163 E14.50418
G1 X80.676 Y65.377 E14.54368
G1 X80.927 Y64.799 E14.57303
G1 X81.315 Y63.997 E14.61451
G1 X81.709 Y63.271 E14.65297
G1 X82.014 Y62.74 E14.68149
G1 X82.471 Y62.011 E14.72155
G1 X82.965 Y61.298 E14.76194
G1 X83.331 Y60.799 E14.79076
G0 F6000 X83.654 Y61.036
G1 F1200 X84.21 Y60.342 E14.83217
G1 X84.765 Y59.711 E14.8713
G1 X85.154 Y59.288 E14.89805
G1 X85.776 Y58.668 E14.93895
G1 X86.393 Y58.107 E14.97778
G1 X86.864 Y57.701 E15.00673
G1 X87.542 Y57.163 E15.04704
G1 X88.198 Y56.689 E15.08472
G1 X88.68 Y56.356 E15.112
G1 X89.423 Y55.89 E15.15284
G1 X90.151 Y55.478 E15.19179
G1 X90.714 Y55.178 E15.2215
G1 X91.479 Y54.811 E15.26101
G1 X92.242 Y54.487 E15.2996
G1 X92.763 Y54.279 E15.32573
G1 X93.606 Y53.983 E15.36733
G1 X94.454 Y53.73 E15.40854
G1 X95.062 Y53.566 E15.43786
G1 X95.908 Y53.375 E15.47824
G1 X96.421 Y53.281 E15.50253
G1 X97.295 Y53.143 E15.54373
G1 X98.154 Y53.048 E15.58397
G1 X99.015 Y52.991 E15.62415
G1 X99.864 Y52.96 E15.66371
G1 X100.678 Y52.95 E15.70162
G1 X119.298 Y52.95 E16.56864
G1 X120.151 Y52.961 E16.60836
G1 X121.017 Y52.994 E16.64872
G1 X121.901 Y53.053 E16.68997
G1 X122.763 Y53.151 E16.73037
G1 X123.591 Y53.285 E16.76943
G1 X124.232 Y53.405 E16.79979
G1 X125.054 Y53.595 E16.83908
G1 X125.827 Y53.81 E16.87644
G1 X126.385 Y53.979 E16.90359
G1 X127.224 Y54.273 E16.94498
G1 X128.014 Y54.593 E16.98467
G1 X128.577 Y54.837 E17.01324
G1 X129.362 Y55.216 E17.05383
G1 X130.08 Y55.606 E17.09188
G1 X130.592 Y55.899 E17.11935
G1 X131.302 Y56.345 E17.15839
G1 X132.014 Y56.838 E17.19872
G1 X132.513 Y57.204 E17.22753
G1 X133.198 Y57.752 E17.26838
G1 X133.839 Y58.315 E17.30811
G1 X134.262 Y58.704 E17.33487
G1 X134.882 Y59.326 E17.37576
G1 X135.45 Y59.952 E17.41512
G1 X135.856 Y60.423 E17.44407
G1 X136.381 Y61.084 E17.48338
G1 X136.86 Y61.746 E17.52143
G1 X137.188 Y62.222 E17.54835
G1 X137.652 Y62.959 E17.5889
G1 X138.053 Y63.667 E17.62679
G1 X138.354 Y64.228 E17.65643
G1 X138.755 Y65.062 E17.69952
G1 X139.07 Y65.804 E17.73706
G1 X139.279 Y66.33 E17.76341
G1 X139.567 Y67.155 E17.8041
G1 X139.73 Y67.691 E17.83019
G1 X139.98 Y68.598 E17.874
G1 X140.177 Y69.466 E17.91544
G1 X140.314 Y70.242 E17.95214
G1 X140.403 Y70.818 E17.97927
G1 X140.501 Y71.687 E18.02
G1 X140.543 Y72.282 E18.04777
G1 X140.589 Y73.395 E18.09964
G1 X140.6 Y74.233 E18.13866
G1 X140.599 Y145.897 E21.47564
G1 X140.581 Y146.876 E21.52123
G1 X140.556 Y147.466 E21.54873
G1 X140.499 Y148.335 E21.58928
G1 X140.401 Y149.2 E21.62982
G1 X140.265 Y150.041 E21.66949
G1 X140.145 Y150.682 E21.69985
G1 X139.955 Y151.504 E21.73914
G1 X139.739 Y152.28 E21.77665
G1 X139.568 Y152.844 E21.80409
G1 X139.272 Y153.687 E21.84569
G1 X138.964 Y154.447 E21.88388
G1 X138.728 Y154.995 E21.91166
G1 X138.346 Y155.787 E21.9526
G1 X137.944 Y156.53 E21.99194
G1 X137.651 Y157.042 E22.01941
G1 X137.205 Y157.752 E22.05845
G1 X136.712 Y158.464 E22.09878
G1 X136.346 Y158.963 E22.12759
G1 X135.798 Y159.648 E22.16844
G1 X135.228 Y160.296 E22.20863
G1 X134.842 Y160.715 E22.23515
G1 X134.231 Y161.324 E22.27532
G1 X133.623 Y161.877 E22.31359
G1 X133.154 Y162.284 E22.34251
G1 X132.449 Y162.844 E22.38443
G1 X131.802 Y163.311 E22.42159
G1 X131.32 Y163.644 E22.44887
G1 X130.577 Y164.11 E22.48971
G1 X129.87 Y164.511 E22.52755
G1 X129.309 Y164.811 E22.55718
G1 X128.512 Y165.194 E22.59835
G1 X127.757 Y165.514 E22.63653
G1 X127.23 Y165.725 E22.66297
G1 X126.407 Y166.013 E22.70357
G1 X125.554 Y166.267 E22.74501
G1 X124.949 Y166.431 E22.7742
G1 X124.084 Y166.627 E22.8155
G1 X123.298 Y166.766 E22.85267
G1 X122.711 Y166.857 E22.88032
G1 X121.845 Y166.952 E22.92089
G1 X120.985 Y167.009 E22.96102
G1 X120.136 Y167.04 E23.00058
G1 X119.316 Y167.05 E23.03877
G1 X100.553 Y167.049 E23.91245
G1 X99.571 Y167.031 E23.95819
G1 X98.673 Y166.989 E24.00005
G1 X98.099 Y166.947 E24.02685
G1 X97.237 Y166.849 E24.06724
G1 X96.409 Y166.715 E24.1063
G1 X95.768 Y166.595 E24.13667
G1 X94.946 Y166.405 E24.17595
G1 X94.17 Y166.189 E24.21346
G1 X93.606 Y166.018 E24.2409
G1 X92.763 Y165.722 E24.2825
G1 X91.986 Y165.407 E24.32154
G1 X91.423 Y165.163 E24.35012
G1 X90.638 Y164.784 E24.39071
G1 X89.922 Y164.395 E24.42865
G1 X89.408 Y164.101 E24.45622
G1 X88.687 Y163.648 E24.49587
G1 X87.985 Y163.161 E24.53566
G1 X87.486 Y162.795 E24.56447
G1 X86.803 Y162.248 E24.60522
G1 X86.16 Y161.683 E24.64507
G1 X85.735 Y161.292 E24.67196
G1 X85.115 Y160.671 E24.71283
G1 X84.551 Y160.049 E24.75192
G1 X84.144 Y159.577 E24.78094
G1 X83.616 Y158.912 E24.82048
G1 X83.139 Y158.252 E24.8584
G1 X82.806 Y157.77 E24.88568
G1 X82.34 Y157.027 E24.92652
G1 X81.943 Y156.326 E24.96403
G1 X81.641 Y155.764 E24.99374
G1 X81.255 Y154.961 E25.03523
G1 X80.93 Y154.196 E25.07393
G1 X80.721 Y153.67 E25.10028
G1 X80.437 Y152.857 E25.14038
G1 X80.183 Y152.004 E25.18183
G1 X80.019 Y151.399 E25.21102
G1 X79.823 Y150.534 E25.25231
G1 X79.684 Y149.746 E25.28957
G1 X79.593 Y149.158 E25.31728
G1 X79.498 Y148.296 E25.35766
G1 X79.441 Y147.436 E25.39779
G1 X79.41 Y146.587 E25.43735
G1 X79.4 Y145.767 E25.47554
G1 X79.401 Y74.106 E28.81237
G1 X79.419 Y73.103 E28.85909
G1 X79.461 Y72.224 E28.90006
G1 X79.503 Y71.649 E28.92691
G1 X79.601 Y70.783 E28.96749
G1 X79.735 Y69.959 E29.00636
G1 X79.855 Y69.318 E29.03673
G1 X80.045 Y68.496 E29.07601
G1 X80.261 Y67.72 E29.11352
G1 X80.432 Y67.156 E29.14096
G1 X80.728 Y66.313 E29.18257
G1 X81.043 Y65.536 E29.22161
G1 X81.287 Y64.973 E29.25018
G1 X81.666 Y64.188 E29.29077
G1 X82.056 Y63.47 E29.32882
G1 X82.353 Y62.952 E29.35662
G1 X82.8 Y62.239 E29.39581
G1 X83.288 Y61.535 E29.43569
G1 X83.654 Y61.036 E29.46451
G0 F6000 X83.977 Y61.273
G1 F1200 X84.511 Y60.606 E29.50429
G1 X85.059 Y59.982 E29.54296
G1 X85.437 Y59.571 E29.56897
G1 X86.045 Y58.964 E29.60897
G1 X86.655 Y58.41 E29.64734
G1 X87.113 Y58.014 E29.67553
G1 X87.777 Y57.487 E29.71501
G1 X88.425 Y57.018 E29.75225
G1 X88.893 Y56.695 E29.77873
G1 X89.62 Y56.238 E29.81872
G1 X90.339 Y55.831 E29.85719
G1 X90.887 Y55.539 E29.8861
G1 X91.652 Y55.172 E29.92561
G1 X92.391 Y54.858 E29.963
G1 X92.896 Y54.656 E29.98833
G1 X93.72 Y54.366 E30.029
G1 X94.559 Y54.116 E30.06977
G1 X95.15 Y53.956 E30.09828
G1 X95.98 Y53.768 E30.1379
G1 X96.483 Y53.676 E30.16171
G1 X97.339 Y53.541 E30.20207
G1 X98.18 Y53.447 E30.24147
G1 X99.03 Y53.391 E30.28113
G1 X99.869 Y53.36 E30.32023
G1 X100.683 Y53.35 E30.35814
G1 X119.293 Y53.35 E31.22469
G1 X120.136 Y53.361 E31.26395
G1 X120.991 Y53.393 E31.30379
G1 X121.856 Y53.45 E31.34416
G1 X122.699 Y53.546 E31.38366
G1 X123.517 Y53.678 E31.42225
G1 X124.142 Y53.795 E31.45185
G1 X124.964 Y53.985 E31.49114
G1 X125.711 Y54.193 E31.52725
G1 X126.253 Y54.357 E31.55361
G1 X127.074 Y54.644 E31.59411
G1 X127.855 Y54.96 E31.63334
G1 X128.403 Y55.197 E31.66114
G1 X129.171 Y55.568 E31.70086
G1 X129.881 Y55.953 E31.73847
G1 X130.379 Y56.238 E31.76519
G1 X131.074 Y56.674 E31.80339
G1 X131.777 Y57.161 E31.84321
G1 X132.276 Y57.527 E31.87203
G1 X132.934 Y58.053 E31.91125
G1 X133.568 Y58.609 E31.95052
G1 X133.979 Y58.987 E31.97652
G1 X134.586 Y59.595 E32.01652
G1 X135.147 Y60.213 E32.05539
G1 X135.543 Y60.672 E32.08362
G1 X136.057 Y61.319 E32.12209
G1 X136.531 Y61.973 E32.1597
G1 X136.85 Y62.435 E32.18585
G1 X137.304 Y63.156 E32.22552
G1 X137.701 Y63.856 E32.26299
G1 X137.994 Y64.401 E32.29181
G1 X138.387 Y65.218 E32.33402
G1 X138.698 Y65.952 E32.37114
G1 X138.901 Y66.462 E32.3967
G1 X139.184 Y67.271 E32.43661
G1 X139.344 Y67.798 E32.46225
G1 X139.59 Y68.687 E32.50521
G1 X139.783 Y69.536 E32.54575
G1 X139.919 Y70.303 E32.58202
G1 X140.006 Y70.863 E32.60841
G1 X140.102 Y71.715 E32.64833
G1 X140.143 Y72.299 E32.67559
G1 X140.189 Y73.4 E32.7269
G1 X140.2 Y74.233 E32.76569
G1 X140.199 Y145.89 E36.10235
G1 X140.181 Y146.859 E36.14747
G1 X140.157 Y147.44 E36.17455
G1 X140.101 Y148.29 E36.21422
G1 X140.006 Y149.136 E36.25386
G1 X139.872 Y149.967 E36.29305
G1 X139.755 Y150.592 E36.32266
G1 X139.565 Y151.414 E36.36194
G1 X139.356 Y152.164 E36.3982
G1 X139.19 Y152.712 E36.42486
G1 X138.901 Y153.537 E36.46556
G1 X138.597 Y154.289 E36.50333
G1 X138.368 Y154.821 E36.5303
G1 X137.994 Y155.597 E36.57042
G1 X137.597 Y156.331 E36.60927
G1 X137.312 Y156.829 E36.63599
G1 X136.876 Y157.524 E36.67419
G1 X136.389 Y158.227 E36.71402
G1 X136.023 Y158.726 E36.74283
G1 X135.497 Y159.384 E36.78206
G1 X134.934 Y160.025 E36.82178
G1 X134.559 Y160.432 E36.84755
G1 X133.962 Y161.028 E36.88683
G1 X133.361 Y161.575 E36.92467
G1 X132.905 Y161.971 E36.9528
G1 X132.215 Y162.52 E36.99385
G1 X131.575 Y162.982 E37.03061
G1 X131.107 Y163.305 E37.05709
G1 X130.38 Y163.762 E37.09707
G1 X129.681 Y164.158 E37.13448
G1 X129.136 Y164.45 E37.16327
G1 X128.339 Y164.833 E37.20445
G1 X127.609 Y165.143 E37.24138
G1 X127.098 Y165.347 E37.267
G1 X126.275 Y165.635 E37.3076
G1 X125.449 Y165.881 E37.34773
G1 X124.86 Y166.041 E37.37615
G1 X124.014 Y166.233 E37.41654
G1 X123.237 Y166.371 E37.45329
G1 X122.667 Y166.459 E37.48015
G1 X121.819 Y166.553 E37.51987
G1 X120.97 Y166.609 E37.55949
G1 X120.131 Y166.64 E37.59859
G1 X119.316 Y166.65 E37.63654
G1 X100.56 Y166.649 E38.5099
G1 X99.589 Y166.631 E38.55512
G1 X98.702 Y166.59 E38.59647
G1 X98.144 Y166.55 E38.62252
G1 X97.301 Y166.454 E38.66202
G1 X96.483 Y166.322 E38.7006
G1 X95.858 Y166.205 E38.73021
G1 X95.036 Y166.015 E38.7695
G1 X94.286 Y165.806 E38.80575
G1 X93.738 Y165.64 E38.83241
G1 X92.913 Y165.351 E38.87312
G1 X92.145 Y165.04 E38.9117
G1 X91.597 Y164.803 E38.9395
G1 X90.829 Y164.432 E38.97922
G1 X90.121 Y164.048 E39.01672
G1 X89.621 Y163.762 E39.04354
G1 X88.915 Y163.319 E39.08235
G1 X88.222 Y162.838 E39.12163
G1 X87.723 Y162.472 E39.15045
G1 X87.067 Y161.947 E39.18957
G1 X86.431 Y161.389 E39.22897
